X:1
T:Laugebucam
S:John Moore's Book 1
Z:Transcribed by Paul Barber-Riley  March 2016
M:6/8
L:1/8
K:D
%%VWML: Moore1-4493-p1-0
F:http://www.vwml.org/record/Moore1/4493/p1
A/G/|F>GA A>fe | dBB B2A/G/ | G>AA A>de | fdd d2:|
|:d/e/|f>af b>fd | fee (e2 d/e/) | f>gf edc | fBB (B2 A/G/) |
F>AA Afe | dBB (B2 A/G/) | F>AA A>de | fdd d2:|

